src/main/resources/icons/RIcons/icons/toolWindow/rHtml.svg

<svg width="13" height="13" viewBox="0 0 13 13" fill="none" xmlns="http://www.w3.org/2000/svg"><rect id="frame" width="13" height="13" fill="none"/><path fill-rule="evenodd" clip-rule="evenodd" d="M1 1h11v11H1V1zm5 7h1v2H6V8zm1-5H6v4h1V3zM3 3h1v2H3V3zm7 0H9v2h1V3zM9 6h1v4H9V6zM4 6H3v4h1V6z" fill="#6E6E6E"/></svg>

<svg width="13" height="13" viewBox="0 0 13 13" fill="none" xmlns="http://www.w3.org/2000/svg">
<path fill-rule="evenodd" clip-rule="evenodd" d="M1 1H12V12H1V1ZM6 8H7V10H6V8ZM7 3H6V7H7V3ZM3 3H4V5H3V3ZM10 3H9V5H10V3ZM9 6H10V10H9V6ZM4 6H3V10H4V6Z" fill="#6E6E6E"/>
</svg>
